img/ownership.svg

<?xml version="1.0" encoding="UTF-8" standalone="no"?>
<svg width="120px" height="120px" viewBox="0 0 120 120" version="1.1" xmlns="http://www.w3.org/2000/svg" xmlns:xlink="http://www.w3.org/1999/xlink" xmlns:sketch="http://www.bohemiancoding.com/sketch/ns">
    <!-- Generator: Sketch 3.0.4 (8053) - http://www.bohemiancoding.com/sketch -->
    <title>ownership</title>
    <desc>Created with Sketch.</desc>
    <defs></defs>
    <g id="Icons" stroke="none" stroke-width="1" fill="none" fill-rule="evenodd" sketch:type="MSPage">
        <g id="ownership" sketch:type="MSArtboardGroup" stroke="#A25CC6" stroke-width="2" fill="#E3CDEE">
            <path d="M117.72914,55.8285957 L108.23132,46.1513191 L52.59786,46.1513191 C47.84128,37.6893617 38.91458,31.9773617 28.66628,32 C13.39826,31.9678298 1.03422,44.5809362 1,60.1179574 C1.03422,75.6919149 13.39826,88.3038298 28.66628,88.3276596 C38.88626,88.3109787 47.7929,82.6168511 52.55774,74.1775319 L63.74768,74.1775319 L72.61184,65.2294468 L79.3933,72.0793191 L85.90336,65.5046809 L92.59278,72.2568511 L99.37424,65.4129362 L106.1557,72.2568511 L117.73032,60.5742979 C119.40238,58.8144681 119.44486,57.5800851 117.72914,55.8285957 L117.72914,55.8285957 Z M16.5524,67.5159149 C12.47196,67.4777872 9.19038,64.1249362 9.22814,60.0262128 C9.19038,55.8714894 12.47196,52.5210213 16.5524,52.5400851 C20.56558,52.5186383 23.84716,55.8714894 23.87784,60.0262128 C23.84834,64.1249362 20.56676,67.4765957 16.5524,67.5159149 L16.5524,67.5159149 Z" id="Shape" sketch:type="MSShapeGroup"></path>
        </g>
    </g>
</svg>

<svg viewBox="0 0 120 120" xmlns="http://www.w3.org/2000/svg"><g fill="none" fill-rule="evenodd"><path d="m117.73 55.829l-9.498-9.677h-55.633c-4.757-8.462-13.683-14.174-23.932-14.15-15.268-.032-27.632 12.581-27.666 28.12.034 15.574 12.398 28.19 27.666 28.21 10.22-.017 19.13-5.711 23.891-14.15h11.19l8.864-8.948 6.781 6.85 6.51-6.575 6.689 6.752 6.781-6.844 6.781 6.844 11.575-11.683c1.672-1.76 1.715-2.994-.001-4.746m-101.18 11.687c-4.08-.038-7.362-3.391-7.324-7.49-.038-4.155 3.244-7.505 7.324-7.486 4.01-.021 7.295 3.331 7.325 7.486-.029 4.099-3.311 7.45-7.325 7.49" stroke="#a25cc6" stroke-width="2" fill="#e3cdee"/></g></svg>
